Hatter-kde/actions/24/kdenlive-no-composite.svg

<?xml version="1.0" encoding="UTF-8"?>
<svg viewBox="0 0 24 24" xmlns="http://www.w3.org/2000/svg">
 <defs id="defs3051">
  <style id="current-color-scheme" type="text/css">.ColorScheme-Text {
        color:#363636;
      }</style>
 </defs>
 <g transform="translate(1,1)" fill="currentColor">
  <path class="ColorScheme-Text" d="m3 3v0.5 15.5h16v-16h-16zm1 1h14v14h-14v-14z"/>
  <path class="ColorScheme-Text" d="m4 4h14v14h-14z" fill-opacity=".6"/>
 </g>
</svg>

<svg xmlns="http://www.w3.org/2000/svg" viewBox="0 0 24 24">
  <defs id="defs3051">
    <style type="text/css" id="current-color-scheme">
      .ColorScheme-Text {
        color:#363636;
      }
      </style>
  </defs><g transform="translate(1,1)">
 <path 
    style="fill:currentColor;fill-opacity:1;stroke:none" 
    d="M 3,3 3,3.5 3,19 19,19 19,3 3,3 Z M 4,4 18,4 18,18 4,18 4,4 Z"
    class="ColorScheme-Text"
    />  
 <path 
    style="fill:currentColor;fill-opacity:0.6;stroke:none" 
    d="M 4,4 18,4 18,18 4,18 Z"
    class="ColorScheme-Text"
    />  
</g></svg>
